X: 101
T: The idle road
C: anon.
O: Ireland
B: Francis O'Neill: "The Dance Music of Ireland" (1907) no. 101
R: Double jig
Z: Transcribed by Frank Nordberg - http://www.musicaviva.com
F: http://www.musicaviva.com/abc/tunes/ireland/oneill-1001/oneill-1001-010
1.abc
M: 6/8
L: 1/8
K: G
D|D>BB D>cc|D>BB c2e|dBG FGA|BAG AFD|D>BB D>cc|D>BB c2e|dBG FGA|BGG G2:|
|:G|G>gg efg|fed cAF|G>gg gfg|afd cAF|D>BB D>cc|D>BB c2e|dBG FGA|BGG G2:|


